assets/images/icons/webdad-upgrade-logo-white.svg

<svg width="165" height="40" viewBox="0 0 165 40" fill="none" xmlns="http://www.w3.org/2000/svg">
<path d="M0 6.22568C0 2.78733 2.78733 0 6.22568 0H33.7743C37.2127 0 40 2.78733 40 6.22568V33.7743C40 37.2127 37.2127 40 33.7743 40H6.22568C2.78733 40 0 37.2127 0 33.7743V6.22568Z" fill="#3B3D43"/>
<path fill-rule="evenodd" clip-rule="evenodd" d="M30.2463 13.4965C29.7564 14.071 29.433 14.8096 29.3205 15.6115C29.2946 15.7964 29.2868 15.9157 29.2847 16.1627L29.2828 16.381L29.1989 16.4735C28.7838 16.9312 28.5189 17.6036 28.5066 18.2312C28.5043 18.3501 28.5058 18.3582 28.5354 18.3876C28.559 18.4111 28.577 18.4192 28.6095 18.4211L28.6524 18.4235L29.0129 18.1552L29.3734 17.887L29.3789 17.9794C29.3852 18.0844 29.402 18.1197 29.4549 18.1385C29.5034 18.1557 31.5204 18.1542 31.5584 18.1369C31.6045 18.1159 31.6205 18.0795 31.6272 17.9798L31.6334 17.8876L31.9849 18.1499C32.2354 18.3369 32.3456 18.4142 32.3682 18.4188C32.4125 18.428 32.4642 18.4007 32.4865 18.3565C32.517 18.2962 32.4956 18.0121 32.4404 17.7422C32.3458 17.2805 32.1095 16.8074 31.8066 16.4735L31.7227 16.381L31.7208 16.1627C31.718 15.8335 31.6979 15.6331 31.6375 15.3333C31.4848 14.5745 31.1089 13.8351 30.6367 13.3647C30.5571 13.2854 30.5105 13.2646 30.4616 13.2865C30.4377 13.2972 30.3104 13.4213 30.2463 13.4965ZM30.1992 14.9202C30.3843 14.8002 30.6212 14.8002 30.8063 14.9202C30.8396 14.9418 30.8801 14.9726 30.8963 14.9888C31.0354 15.1274 31.0924 15.3674 31.0297 15.55C31.003 15.6278 30.945 15.7248 30.8963 15.7734C30.7577 15.9116 30.5159 15.9687 30.3334 15.9064C30.2553 15.8797 30.1579 15.822 30.1092 15.7734C30.0118 15.6763 29.9507 15.5251 29.9507 15.3811C29.9507 15.1894 30.0403 15.0232 30.1992 14.9202ZM29.9554 18.7974C29.8782 18.9006 29.8323 19.0224 29.8186 19.1605C29.8006 19.3404 29.9396 19.7189 30.253 20.3439C30.4205 20.678 30.4339 20.6969 30.5027 20.6969C30.5719 20.6969 30.5855 20.6777 30.7518 20.3461C31.0657 19.7199 31.2049 19.3408 31.1869 19.1605C31.1508 18.7977 30.8742 18.5355 30.5174 18.526C30.3641 18.522 30.214 18.5706 30.0864 18.6657C30.0201 18.715 30.0075 18.7278 29.9554 18.7974Z" fill="#1874FF"/>
<path fill-rule="evenodd" clip-rule="evenodd" d="M9.59527 16.4289C9.73147 16.3284 9.94099 16.3977 9.96771 16.5648L10.7403 21.3953C10.7426 21.4097 10.7629 21.4111 10.7671 21.3971L12.1767 16.7051C12.322 16.3334 12.54 16.1476 12.8307 16.1476H14.2575C14.5878 16.1476 14.8058 16.3334 14.9115 16.7051L16.3211 21.3971C16.3253 21.4111 16.3456 21.4097 16.3479 21.3953L17.6265 13.4011C17.6661 13.0982 17.8709 12.9468 18.2408 12.9468H19.6803H20.6982L22.798 12.993C22.798 12.993 22.9849 13.0166 23.1622 13.0815C23.2279 13.0955 23.2847 13.1226 23.3324 13.163C23.3803 13.1938 23.4202 13.2296 23.4455 13.2709C23.4729 13.3159 23.4897 13.3687 23.4997 13.4244C23.5127 13.4733 23.5192 13.5261 23.5192 13.5827V21.9244C23.5192 23.0448 23.7734 23.8783 24.2819 24.4248C24.7904 24.9577 25.4879 25.2241 26.3745 25.2241C27.2611 25.2241 27.9521 24.9577 28.4475 24.4248C28.956 23.8783 29.2102 23.3217 29.2102 22.2013V21.6009C29.2102 21.4506 29.2559 21.3276 29.3471 21.232C29.4384 21.1363 29.5557 21.0885 29.6991 21.0885H31.4593C31.6027 21.0885 31.7135 21.1363 31.7917 21.232C31.883 21.3276 31.9286 21.4506 31.9286 21.6009V22.2013C31.9286 23.513 31.7005 24.3155 31.2441 25.1626C30.8008 25.9961 30.162 26.6178 29.3276 27.0277C28.5062 27.424 27.5218 27.6221 26.3745 27.6221C25.2402 27.6221 24.2558 27.424 23.4214 27.0277C22.587 26.6178 21.9416 25.9961 21.4853 25.1626C21.0289 24.3155 20.8008 23.2361 20.8008 21.9244V15.6387C20.8008 15.6387 20.8007 15.6387 20.8007 15.6387L18.9543 26.7205C18.9279 26.9133 18.842 27.0785 18.6967 27.2161C18.5646 27.34 18.3928 27.402 18.1814 27.402H16.2987C16.0874 27.402 15.9222 27.3469 15.8033 27.2368C15.6844 27.1266 15.5985 27.0027 15.5457 26.8651L13.5571 20.9976C13.5529 20.9851 13.5353 20.9851 13.5311 20.9976L11.5425 26.8651C11.4236 27.223 11.1792 27.402 10.8093 27.402H8.9266C8.702 27.402 8.52365 27.34 8.39154 27.2161C8.25942 27.0785 8.18014 26.9133 8.15372 26.7205L6.54968 16.9218C6.51959 16.738 6.73793 16.6004 6.90589 16.6813C7.24931 16.8465 7.63438 16.9392 8.04111 16.9392C8.623 16.9392 9.16056 16.7496 9.59527 16.4289Z" fill="#FAFBFC"/>
<path d="M9.83337 14.2897C9.83337 15.2781 9.0312 16.0794 8.04168 16.0794C7.05216 16.0794 6.25 15.2781 6.25 14.2897C6.25 13.3012 7.05216 12.5 8.04168 12.5C9.0312 12.5 9.83337 13.3012 9.83337 14.2897Z" fill="#1874FF"/>
<path d="M59.4032 30C57.9983 30 56.7792 29.765 55.7457 29.2951C54.7122 28.809 53.9129 28.0718 53.3478 27.0833C52.7826 26.0787 52.5 24.7986 52.5 23.2431V13.3507C52.5 13.1725 52.5565 13.0266 52.6696 12.9132C52.7826 12.7998 52.9198 12.7431 53.0813 12.7431H55.2855C55.4631 12.7431 55.6004 12.7998 55.6973 12.9132C55.8103 13.0266 55.8668 13.1725 55.8668 13.3507V23.2431C55.8668 24.5718 56.1817 25.5602 56.8115 26.2083C57.4412 26.8403 58.3051 27.1562 59.4032 27.1562C60.5012 27.1562 61.3571 26.8403 61.9707 26.2083C62.6004 25.5602 62.9153 24.5718 62.9153 23.2431V13.3507C62.9153 13.1725 62.9718 13.0266 63.0849 12.9132C63.1979 12.7998 63.3432 12.7431 63.5209 12.7431H65.7008C65.8784 12.7431 66.0157 12.7998 66.1126 12.9132C66.2256 13.0266 66.2821 13.1725 66.2821 13.3507V23.2431C66.2821 24.7986 65.9995 26.0787 65.4344 27.0833C64.8853 28.0718 64.0941 28.809 63.0606 29.2951C62.0433 29.765 60.8242 30 59.4032 30Z" fill="white"/>
<path d="M70.4941 29.7569C70.3326 29.7569 70.1953 29.7002 70.0823 29.5868C69.9692 29.4734 69.9127 29.3356 69.9127 29.1736V13.3507C69.9127 13.1725 69.9692 13.0266 70.0823 12.9132C70.1953 12.7998 70.3326 12.7431 70.4941 12.7431H76.9855C78.245 12.7431 79.343 12.9456 80.2796 13.3507C81.2162 13.7396 81.9428 14.3391 82.4596 15.1493C82.9763 15.9433 83.2346 16.9398 83.2346 18.1389C83.2346 19.3542 82.9763 20.3588 82.4596 21.1528C81.9428 21.9306 81.2162 22.5139 80.2796 22.9028C79.343 23.2917 78.245 23.4861 76.9855 23.4861H73.3764V29.1736C73.3764 29.3356 73.3199 29.4734 73.2069 29.5868C73.11 29.7002 72.9727 29.7569 72.7951 29.7569H70.4941ZM73.328 20.7882H76.8643C77.8009 20.7882 78.5195 20.5694 79.0201 20.1319C79.5207 19.6782 79.7709 19.0139 79.7709 18.1389C79.7709 17.3287 79.5368 16.6806 79.0685 16.1944C78.6002 15.6921 77.8655 15.441 76.8643 15.441H73.328V20.7882Z" fill="white"/>
<path d="M92.4675 30C90.9819 30 89.7143 29.7407 88.6646 29.2222C87.6312 28.7037 86.8238 27.9583 86.2425 26.9861C85.6773 25.9977 85.3705 24.8229 85.3221 23.4618C85.3059 22.765 85.2978 22.0197 85.2978 21.2257C85.2978 20.4155 85.3059 19.6539 85.3221 18.941C85.3705 17.5961 85.6773 16.4456 86.2425 15.4896C86.8238 14.5336 87.6393 13.7963 88.6889 13.2778C89.7546 12.7593 91.0142 12.5 92.4675 12.5C93.6462 12.5 94.6797 12.662 95.5678 12.9861C96.456 13.294 97.1907 13.6991 97.772 14.2014C98.3695 14.6875 98.8135 15.2141 99.1042 15.7812C99.411 16.3484 99.5725 16.875 99.5886 17.3611C99.6048 17.5069 99.5644 17.6285 99.4675 17.7257C99.3706 17.8229 99.2414 17.8715 99.08 17.8715H96.5851C96.4237 17.8715 96.3026 17.8391 96.2218 17.7743C96.1411 17.7095 96.0684 17.6123 96.0038 17.4826C95.8746 17.1424 95.6728 16.8102 95.3983 16.4861C95.1238 16.1458 94.7524 15.8623 94.2841 15.6354C93.8158 15.4086 93.2103 15.2951 92.4675 15.2951C91.3694 15.2951 90.4893 15.5868 89.8273 16.1701C89.1814 16.7535 88.8342 17.7176 88.7858 19.0625C88.7373 20.4722 88.7373 21.8981 88.7858 23.3403C88.8342 24.7176 89.1895 25.706 89.8515 26.3056C90.5297 26.9051 91.4179 27.2049 92.5159 27.2049C93.2425 27.2049 93.8885 27.0752 94.4536 26.816C95.035 26.5567 95.4871 26.1516 95.81 25.6007C96.1491 25.0498 96.3187 24.3449 96.3187 23.4861V22.7326H93.3637C93.2022 22.7326 93.0649 22.6759 92.9519 22.5625C92.8389 22.4491 92.7823 22.3032 92.7823 22.125V20.8368C92.7823 20.6586 92.8389 20.5127 92.9519 20.3993C93.0649 20.2859 93.2022 20.2292 93.3637 20.2292H99.1526C99.3303 20.2292 99.4675 20.2859 99.5644 20.3993C99.6774 20.5127 99.734 20.6586 99.734 20.8368V23.3889C99.734 24.75 99.4352 25.9248 98.8378 26.9132C98.2564 27.9016 97.4167 28.6632 96.3187 29.1979C95.2368 29.7326 93.953 30 92.4675 30Z" fill="white"/>
<path d="M103.42 29.7569C103.259 29.7569 103.122 29.7002 103.009 29.5868C102.896 29.4734 102.839 29.3356 102.839 29.1736V13.3507C102.839 13.1725 102.896 13.0266 103.009 12.9132C103.122 12.7998 103.259 12.7431 103.42 12.7431H109.694C111.648 12.7431 113.19 13.1968 114.32 14.1042C115.45 15.0116 116.016 16.3322 116.016 18.066C116.016 19.265 115.717 20.2616 115.119 21.0556C114.538 21.8495 113.755 22.4248 112.77 22.7813L116.306 28.9792C116.355 29.0764 116.379 29.1655 116.379 29.2465C116.379 29.3924 116.322 29.5139 116.209 29.6111C116.113 29.7083 115.999 29.7569 115.87 29.7569H113.666C113.392 29.7569 113.182 29.684 113.036 29.5382C112.891 29.3924 112.778 29.2465 112.697 29.1007L109.573 23.3403H106.206V29.1736C106.206 29.3356 106.149 29.4734 106.036 29.5868C105.939 29.7002 105.802 29.7569 105.625 29.7569H103.42ZM106.206 20.5938H109.621C110.606 20.5938 111.341 20.375 111.825 19.9375C112.31 19.4838 112.552 18.8519 112.552 18.0417C112.552 17.2315 112.31 16.5995 111.825 16.1458C111.357 15.6759 110.622 15.441 109.621 15.441H106.206V20.5938Z" fill="white"/>
<path d="M118.095 29.7569C117.966 29.7569 117.845 29.7083 117.732 29.6111C117.635 29.5139 117.586 29.3924 117.586 29.2465C117.586 29.1817 117.603 29.1088 117.635 29.0278L123.472 13.3507C123.521 13.1887 123.61 13.0509 123.739 12.9375C123.884 12.8079 124.078 12.7431 124.32 12.7431H126.96C127.202 12.7431 127.388 12.8079 127.517 12.9375C127.647 13.0509 127.743 13.1887 127.808 13.3507L133.645 29.0278C133.662 29.1088 133.67 29.1817 133.67 29.2465C133.67 29.3924 133.621 29.5139 133.524 29.6111C133.427 29.7083 133.314 29.7569 133.185 29.7569H131.078C130.852 29.7569 130.682 29.7083 130.569 29.6111C130.472 29.4977 130.408 29.3924 130.375 29.2951L129.237 26.3299H122.043L120.905 29.2951C120.873 29.3924 120.8 29.4977 120.687 29.6111C120.59 29.7083 120.428 29.7569 120.202 29.7569H118.095ZM122.891 23.5347H128.389L125.628 16.0243L122.891 23.5347Z" fill="white"/>
<path d="M136.512 29.7569C136.351 29.7569 136.214 29.7002 136.101 29.5868C135.987 29.4734 135.931 29.3356 135.931 29.1736V13.3507C135.931 13.1725 135.987 13.0266 136.101 12.9132C136.214 12.7998 136.351 12.7431 136.512 12.7431H142.422C144.053 12.7431 145.394 12.9942 146.443 13.4965C147.509 13.9988 148.308 14.7442 148.841 15.7326C149.39 16.7211 149.673 17.9282 149.689 19.3542C149.721 20.0671 149.737 20.6991 149.737 21.25C149.737 21.8009 149.721 22.4248 149.689 23.1215C149.657 24.6285 149.382 25.8762 148.865 26.8646C148.349 27.8368 147.565 28.566 146.516 29.0521C145.482 29.522 144.158 29.7569 142.543 29.7569H136.512ZM139.298 26.9618H142.422C143.327 26.9618 144.061 26.8322 144.627 26.5729C145.192 26.3137 145.603 25.9005 145.862 25.3333C146.136 24.75 146.282 23.9884 146.298 23.0486C146.314 22.5625 146.322 22.1412 146.322 21.7847C146.338 21.412 146.338 21.0475 146.322 20.691C146.322 20.3183 146.314 19.897 146.298 19.4271C146.266 18.0984 145.935 17.1181 145.305 16.4861C144.675 15.8542 143.674 15.5382 142.301 15.5382H139.298V26.9618Z" fill="white"/>
<path d="M153.543 29.7569C153.382 29.7569 153.244 29.7002 153.131 29.5868C153.018 29.4734 152.962 29.3356 152.962 29.1736V13.3507C152.962 13.1725 153.018 13.0266 153.131 12.9132C153.244 12.7998 153.382 12.7431 153.543 12.7431H164.201C164.378 12.7431 164.524 12.7998 164.637 12.9132C164.75 13.0266 164.806 13.1725 164.806 13.3507V14.9549C164.806 15.1169 164.75 15.2546 164.637 15.3681C164.524 15.4815 164.378 15.5382 164.201 15.5382H156.232V19.8403H163.668C163.845 19.8403 163.991 19.897 164.104 20.0104C164.217 20.1076 164.273 20.2454 164.273 20.4236V21.9306C164.273 22.1088 164.217 22.2546 164.104 22.3681C163.991 22.4653 163.845 22.5139 163.668 22.5139H156.232V26.9618H164.394C164.572 26.9618 164.717 27.0185 164.83 27.1319C164.943 27.2454 165 27.3912 165 27.5694V29.1736C165 29.3356 164.943 29.4734 164.83 29.5868C164.717 29.7002 164.572 29.7569 164.394 29.7569H153.543Z" fill="white"/>
</svg>

<svg width="165" height="40" fill="none" xmlns="http://www.w3.org/2000/svg"><path d="M0 6.226A6.226 6.226 0 0 1 6.226 0h27.548A6.226 6.226 0 0 1 40 6.226v27.548A6.226 6.226 0 0 1 33.774 40H6.226A6.226 6.226 0 0 1 0 33.774V6.226z" fill="#3B3D43"/><path fill-rule="evenodd" clip-rule="evenodd" d="M30.246 13.496a4.147 4.147 0 0 0-.961 2.667l-.002.218-.084.093a2.804 2.804 0 0 0-.692 1.757c-.003.12-.001.127.028.157a.099.099 0 0 0 .075.033l.042.003.36-.269.361-.268.006.092c.006.105.023.14.076.16.048.017 2.065.015 2.103-.002.047-.021.063-.058.07-.157l.005-.092.352.262c.25.187.36.264.383.269.044.009.096-.018.118-.063.031-.06.01-.344-.046-.614a2.8 2.8 0 0 0-.633-1.268l-.084-.093-.002-.218a3.854 3.854 0 0 0-.084-.83c-.152-.758-.528-1.498-1-1.968-.08-.08-.127-.1-.175-.079-.024.011-.152.135-.216.21zM30.2 14.92a.557.557 0 0 1 .607 0 .695.695 0 0 1 .09.069c.14.138.196.378.134.561a.672.672 0 0 1-.134.223.582.582 0 0 1-.563.133.675.675 0 0 1-.224-.133.573.573 0 0 1-.158-.392c0-.192.09-.358.248-.46zm-.244 3.877a.713.713 0 0 0-.136.363c-.018.18.12.559.434 1.184.168.334.18.353.25.353.069 0 .082-.02.249-.35.314-.627.453-1.006.435-1.187a.684.684 0 0 0-1.1-.494.476.476 0 0 0-.132.131z" fill="#1874FF"/><path fill-rule="evenodd" clip-rule="evenodd" d="M9.595 16.429c.136-.1.346-.031.373.136l.772 4.83c.003.015.023.016.027.002l1.41-4.692c.145-.372.363-.557.654-.557h1.427c.33 0 .548.185.654.557l1.41 4.692c.003.014.024.013.026-.002l1.279-7.994c.04-.303.244-.454.614-.454h2.457l2.1.046s.187.024.364.088a.382.382 0 0 1 .17.082c.048.03.088.067.113.108a.446.446 0 0 1 .055.153c.013.05.02.102.02.159v8.341c0 1.12.253 1.954.762 2.5.508.534 1.206.8 2.093.8.886 0 1.577-.266 2.073-.8.508-.546.762-1.102.762-2.223v-.6c0-.15.046-.273.137-.369a.465.465 0 0 1 .352-.143h1.76c.144 0 .255.047.333.143a.512.512 0 0 1 .137.369v.6c0 1.312-.228 2.114-.685 2.962a4.244 4.244 0 0 1-1.916 1.865c-.822.396-1.806.594-2.953.594-1.135 0-2.12-.198-2.954-.594a4.352 4.352 0 0 1-1.936-1.865c-.456-.848-.684-1.927-.684-3.239V15.64L18.954 26.72a.819.819 0 0 1-.257.495.723.723 0 0 1-.516.186H16.3c-.212 0-.377-.055-.496-.165a.987.987 0 0 1-.257-.372l-1.989-5.867a.014.014 0 0 0-.026 0l-1.989 5.867c-.118.358-.363.537-.733.537H8.927c-.225 0-.403-.062-.535-.186a.867.867 0 0 1-.238-.495l-1.604-9.8c-.03-.183.188-.32.356-.24.343.165.728.258 1.135.258.582 0 1.12-.19 1.554-.51z" fill="#FAFBFC"/><path d="M9.833 14.29a1.79 1.79 0 1 1-3.581-.002 1.79 1.79 0 0 1 3.581.002z" fill="#1874FF"/><path d="M59.403 30c-1.405 0-2.624-.235-3.657-.705a5.293 5.293 0 0 1-2.398-2.212c-.565-1.004-.848-2.284-.848-3.84v-9.892c0-.179.056-.324.17-.438a.56.56 0 0 1 .411-.17h2.204c.178 0 .315.057.412.17.113.114.17.26.17.438v9.892c0 1.329.315 2.317.945 2.965.63.632 1.493.948 2.591.948s1.954-.316 2.568-.948c.63-.648.944-1.636.944-2.965v-9.892c0-.179.057-.324.17-.438a.589.589 0 0 1 .436-.17h2.18c.177 0 .315.057.412.17.113.114.17.26.17.438v9.892c0 1.556-.284 2.836-.849 3.84a5.16 5.16 0 0 1-2.373 2.212c-1.018.47-2.237.705-3.658.705zM70.494 29.757a.56.56 0 0 1-.412-.17.563.563 0 0 1-.17-.413V13.35c0-.179.057-.324.17-.438a.56.56 0 0 1 .412-.17h6.492c1.259 0 2.357.203 3.294.608.936.389 1.663.988 2.18 1.798.516.794.775 1.79.775 2.99 0 1.215-.259 2.22-.775 3.014-.517.778-1.244 1.36-2.18 1.75-.937.389-2.035.583-3.294.583h-3.61v5.688c0 .162-.056.3-.17.413a.512.512 0 0 1-.41.17h-2.302zm2.834-8.969h3.536c.937 0 1.655-.219 2.156-.656.5-.454.75-1.118.75-1.993 0-.81-.233-1.458-.701-1.945-.469-.502-1.204-.753-2.205-.753h-3.536v5.347zM92.468 30c-1.486 0-2.754-.26-3.803-.778a5.78 5.78 0 0 1-2.422-2.236c-.566-.988-.872-2.163-.92-3.524a100.873 100.873 0 0 1 0-4.52c.047-1.346.354-2.496.92-3.452.58-.956 1.396-1.694 2.446-2.212 1.066-.519 2.325-.778 3.779-.778 1.178 0 2.212.162 3.1.486.888.308 1.623.713 2.204 1.215.597.486 1.041 1.013 1.332 1.58.307.567.469 1.094.485 1.58a.424.424 0 0 1-.121.365.523.523 0 0 1-.388.146h-2.495c-.161 0-.282-.033-.363-.098a.858.858 0 0 1-.218-.291 3.44 3.44 0 0 0-.606-.997c-.274-.34-.646-.624-1.114-.85-.468-.227-1.074-.34-1.817-.34-1.098 0-1.978.29-2.64.874-.646.583-.993 1.548-1.041 2.892a62.901 62.901 0 0 0 0 4.278c.048 1.378.403 2.366 1.066 2.966.678.6 1.566.899 2.664.899.727 0 1.372-.13 1.938-.389a2.91 2.91 0 0 0 1.356-1.215c.34-.551.509-1.256.509-2.115v-.753h-2.955a.56.56 0 0 1-.412-.17.594.594 0 0 1-.17-.438v-1.288c0-.178.057-.324.17-.438a.56.56 0 0 1 .412-.17h5.789c.177 0 .314.057.411.17.113.114.17.26.17.438v2.552c0 1.361-.299 2.536-.896 3.524-.582.989-1.421 1.75-2.52 2.285-1.081.535-2.365.802-3.85.802zM103.42 29.757a.559.559 0 0 1-.411-.17.564.564 0 0 1-.17-.413V13.35c0-.179.057-.324.17-.438a.559.559 0 0 1 .411-.17h6.274c1.954 0 3.496.454 4.626 1.361 1.13.908 1.696 2.228 1.696 3.962 0 1.199-.299 2.196-.897 2.99-.581.793-1.364 1.369-2.349 1.725l3.536 6.198a.6.6 0 0 1 .073.268.462.462 0 0 1-.17.364.463.463 0 0 1-.339.146h-2.204c-.274 0-.484-.073-.63-.219a2.022 2.022 0 0 1-.339-.437l-3.124-5.76h-3.367v5.833c0 .162-.057.3-.17.413a.511.511 0 0 1-.411.17h-2.205zm2.786-9.163h3.415c.985 0 1.72-.219 2.204-.657.485-.453.727-1.085.727-1.895s-.242-1.443-.727-1.896c-.468-.47-1.203-.705-2.204-.705h-3.415v5.153zM118.095 29.757a.548.548 0 0 1-.363-.146.496.496 0 0 1-.146-.364c0-.065.017-.138.049-.22l5.837-15.676a.88.88 0 0 1 .267-.414c.145-.13.339-.194.581-.194h2.64c.242 0 .428.065.557.194.13.114.226.252.291.414l5.837 15.677c.017.08.025.154.025.219a.496.496 0 0 1-.146.364.464.464 0 0 1-.339.146h-2.107c-.226 0-.396-.049-.509-.146a.994.994 0 0 1-.194-.316l-1.138-2.965h-7.194l-1.138 2.965a.854.854 0 0 1-.218.316c-.097.097-.259.146-.485.146h-2.107zm4.796-6.222h5.498l-2.761-7.51-2.737 7.51zM136.512 29.757a.559.559 0 0 1-.411-.17.56.56 0 0 1-.17-.413V13.35a.59.59 0 0 1 .17-.438.559.559 0 0 1 .411-.17h5.91c1.631 0 2.972.251 4.021.753 1.066.503 1.865 1.248 2.398 2.237.549.988.832 2.195.848 3.621.032.713.048 1.345.048 1.896 0 .55-.016 1.175-.048 1.872-.032 1.506-.307 2.754-.824 3.743-.516.972-1.3 1.701-2.349 2.187-1.034.47-2.358.705-3.973.705h-6.031zm2.786-2.795h3.124c.905 0 1.639-.13 2.205-.39.565-.258.976-.671 1.235-1.239.274-.583.42-1.345.436-2.284.016-.486.024-.908.024-1.264.016-.373.016-.738 0-1.094 0-.373-.008-.794-.024-1.264-.032-1.329-.363-2.309-.993-2.94-.63-.633-1.631-.949-3.004-.949h-3.003v11.424zM153.543 29.757a.56.56 0 0 1-.412-.17.563.563 0 0 1-.169-.413V13.35c0-.179.056-.324.169-.438a.56.56 0 0 1 .412-.17h10.658a.59.59 0 0 1 .436.17c.113.114.169.26.169.438v1.604c0 .162-.056.3-.169.413a.59.59 0 0 1-.436.17h-7.969v4.302h7.436a.59.59 0 0 1 .436.17c.113.098.169.235.169.414v1.507a.593.593 0 0 1-.169.437.646.646 0 0 1-.436.146h-7.436v4.448h8.162c.178 0 .323.056.436.17.113.113.17.26.17.437v1.605c0 .162-.057.3-.17.413a.589.589 0 0 1-.436.17h-10.851z" fill="#fff"/></svg>
